!!!OTL: Der heimkehrende Soldat
!!!OTL-incipit: Husar, der aus dem Kriege kam, hurrah!
!!!ARE: Europa, Mitteleuropa, Deutschland (BRD), Hessen
!!!YOR: 5, S. 160
!!    ????
!!!SCT: Q0103G
!!!YEM: Copyright 1995, estate of Helmut Schaffrath.
**kern	**text
*ICvox	*
*M6/8	*
*k[f#]	*
*G:	*
!LO:TX:a:t=90 Hessen	!
{8d	Hu-
=1	=1
(8dL	-sar,
8g)	.
8gJ	der
(8gL	aus
8b)	.
8bJ	dem
=2	=2
(8bL	Krie-
8a	.
8aJ	-ge
4a	kam,
8dd	.
=3	=3
[4.b	hur-
8b]	-rah!
8r}	.
{8g	der
=4	=4
4dd	ganʒ
8dd	ver-
8ddL	-ris-
8dd	-sen
8eeJ	und
=5	=5
(8ddL	noch
8cc)	.
8ccJ	viel
4cc}	mehr.
{8dd	'Mein
=6	=6
8.bL	.
16b	lie-
8bJ	-ber
(8ddL	Hu-
8cc)	-sar,
8bJ	wo
=7	=7
(8bL	kommst
8a	.
8aJ	du
4a}	her?'
{8dd	Hur-
=8	=8
4b	-rah,
8b	vi-
(8aL	-vat
8g)	.
8aJ	hur-
=9	=9
[4.g	-rah!
8g]	.
8r}	.
{8g	der
=10	=10
4dd	ganʒ
8dd	ver-
8ddL	-ris-
8dd	-sen
8eeJ	und
=11	=11
(8ddL	noch
8cc)	.
8ccJ	viel
4cc}	mehr.
{8dd	'Mein
=12	=12
8.bL	.
16b	lie-
8bJ	-ber
(8ddL	Hu-
8cc)	-sar,
8bJ	wo
=13	=13
(8bL	kommst
8a	.
8aJ	du
4a}	her?'
{8dd	Hur-
=14	=15
4b	-rah,
8b	vi-
(8aL	-vat
8g)	.
8aJ	hur-
=15	=15
[4.g	-rah!
8g]	.
8r}	.
==	==
!!!AGN: Ballade, Ehe, Betrug
!! Anhaengsel; letzte Zeile = Refrain.
!!!ONB: ESAC (Essen Associative Code) Database: BALLADE
!!!AMT: compound duple
!!!AIN: vox
!!!EED: Helmut Schaffrath
!!!EEV: 1.0
!!!source: Deutsche Volkslieder mit ihren Melodien Balladen. Herausgegeben vom Deutschen Volksliedarchiv. Fünfter Teil. Freiburg/Breisgau 1965.
!!!page: 160
!!!ENC: Anna Maria Matuszewska
!!!EEV: 2025/03/04
*-	*-
